<?xml version="1.0" encoding="UTF-8"?>
<map version="1.10" tiledversion="1.12.2" orientation="orthogonal" renderorder="right-down" width="30" height="20" tilewidth="16" tileheight="16" infinite="1" nextlayerid="4" nextobjectid="10">
 <editorsettings>
  <export target="../../../assets/levels/level0.tmj" format="json"/>
 </editorsettings>
 <tileset firstgid="1" source="../tilesets/ground.tsx"/>
 <layer id="1" name="Tile Layer 1" width="30" height="20">
  <data encoding="csv">
   <chunk x="0" y="0" width="16" height="16">
282,282,282,282,282,282,282,282,282,282,282,282,282,282,282,282,
0,0,0,0,0,0,0,0,0,0,0,0,0,0,0,0,
0,0,0,0,0,0,0,0,0,0,0,0,0,0,0,0,
0,0,0,0,0,0,0,0,0,0,0,0,0,0,0,0,
0,0,0,0,0,0,0,0,0,0,0,0,0,0,0,0,
0,0,0,0,0,0,0,0,0,0,0,0,0,0,0,0,
0,0,0,0,0,0,0,0,0,0,0,0,0,0,0,0,
0,0,0,0,0,0,0,0,0,0,0,0,0,0,0,0,
0,0,0,0,0,0,0,0,0,0,0,0,0,0,0,0,
0,0,0,0,0,0,0,0,0,0,0,0,0,0,0,0,
0,0,0,0,0,0,0,159,160,0,0,0,0,0,0,0,
0,0,0,0,0,0,0,299,300,0,0,0,0,0,0,0,
2,2,2,2,2,2,2,2,2,2,2,2,2,2,2,2,
142,142,142,142,142,142,142,142,142,142,142,142,142,142,142,142,
0,0,0,0,0,0,0,0,0,0,0,0,0,0,0,0,
0,0,0,0,0,0,0,0,0,0,0,0,0,0,0,0
</chunk>
   <chunk x="16" y="0" width="16" height="16">
282,282,282,282,282,282,282,282,282,282,282,282,282,3921,3922,3922,
0,0,0,0,0,0,0,0,0,0,0,0,0,0,0,0,
0,0,0,0,0,0,0,0,0,0,0,0,0,0,0,0,
0,0,0,0,0,0,0,0,0,0,0,0,0,0,0,0,
0,0,0,0,0,0,0,0,0,0,0,0,0,0,0,0,
0,0,0,0,0,0,0,0,0,0,0,0,0,0,0,0,
0,0,0,0,0,0,0,0,0,0,0,0,0,0,0,0,
0,0,0,0,0,0,0,0,0,0,0,0,0,0,0,0,
0,0,0,0,0,0,0,0,0,0,0,0,0,0,0,0,
0,0,0,0,0,0,0,0,0,0,0,0,0,0,0,0,
0,0,0,0,0,0,0,0,0,0,0,0,0,0,0,0,
0,0,0,0,0,0,0,0,0,0,0,0,0,0,0,0,
2,2,2,2,2,2,2,2,2,3,0,0,0,3641,3642,3642,
142,142,142,142,142,142,142,142,142,143,0,0,0,3781,3782,3782,
0,0,0,0,0,0,0,0,0,0,0,0,0,0,0,0,
0,0,0,0,0,0,0,0,0,0,0,0,0,0,0,0
</chunk>
   <chunk x="32" y="0" width="16" height="16">
3922,3922,3922,3922,3922,3922,3922,3922,3922,3922,3922,3922,3922,3922,3922,3922,
0,0,0,0,0,0,0,0,0,0,0,0,0,0,0,0,
0,0,0,0,0,0,0,0,0,0,0,0,0,0,0,0,
0,0,0,0,0,0,0,0,0,0,0,0,0,0,0,0,
0,0,0,0,0,0,0,0,0,0,0,0,0,0,0,0,
0,0,0,0,0,0,0,0,0,0,0,0,0,0,0,0,
0,0,0,0,0,0,0,0,0,0,0,0,0,0,0,0,
0,0,0,0,0,0,3650,3651,3651,3651,3651,3651,3651,3651,3651,3651,
0,0,0,0,0,0,3930,3931,3931,3931,3931,3931,3931,3931,3931,3931,
0,0,3650,3651,3651,3651,3651,3651,3651,3651,3651,3651,3651,3651,3651,3651,
0,0,3790,3791,3791,3791,3791,3791,3791,3791,3791,3791,3791,3791,3791,3791,
0,0,3930,3931,3931,3931,3931,3931,3931,3931,3931,3931,3931,3931,3931,3931,
3642,3642,3642,3642,3642,3642,3642,3642,3642,3642,3642,3642,3642,3642,3642,3642,
3782,3782,3782,3782,3782,3782,3782,3782,3782,3782,3782,3782,3782,3782,3782,3782,
0,0,0,0,0,0,0,0,0,0,0,0,0,0,0,0,
0,0,0,0,0,0,0,0,0,0,0,0,0,0,0,0
</chunk>
   <chunk x="48" y="0" width="16" height="16">
3922,3922,3922,3922,3922,3922,3922,3923,2101,2102,2102,2102,2102,2102,2102,2102,
0,0,0,0,0,0,0,0,0,0,0,0,0,0,0,0,
0,0,0,0,0,0,0,0,0,0,0,0,0,0,0,0,
0,0,0,0,0,0,0,0,0,0,0,0,0,0,0,0,
0,0,0,0,0,0,0,0,0,0,0,0,0,0,0,0,
0,0,0,0,0,0,0,0,0,0,0,0,0,0,0,0,
0,0,0,0,0,0,0,0,0,0,0,0,0,0,0,0,
3651,3651,3652,0,0,0,0,0,0,1828,1829,1829,1829,1829,1829,1829,
3931,3931,3932,0,0,0,0,0,0,1968,1969,1969,1969,1969,1969,1969,
3652,3650,3651,3651,3651,3651,3651,3652,0,1968,1969,1969,1969,1969,1969,1969,
3792,3790,3791,3791,3791,3791,3791,3792,0,1968,1969,1969,1969,1969,1969,1969,
3932,3930,3931,3931,3931,3931,3931,3932,0,1968,1969,1969,1969,1969,1969,1969,
3642,3642,3642,3642,3642,3642,3642,3643,1821,1822,1822,1822,1822,1822,1822,1822,
3782,3782,3782,3782,3782,3782,3782,3783,1961,1962,1962,1962,1962,1962,1962,1962,
0,0,0,0,0,0,0,0,0,0,0,0,0,0,0,0,
0,0,0,0,0,0,0,0,0,0,0,0,0,0,0,0
</chunk>
  </data>
 </layer>
 <objectgroup id="3" name="Collisions">
  <object id="1" x="0" y="192" width="416" height="32"/>
  <object id="2" x="240" y="112" width="32" height="48"/>
  <object id="3" x="0" y="0" width="1024" height="16"/>
  <object id="6" x="464" y="192" width="560" height="32"/>
  <object id="7" x="544" y="144" width="352" height="48"/>
  <object id="8" x="608" y="112" width="208" height="32"/>
  <object id="9" x="912" y="112" width="112"/>
 </objectgroup>
 <layer id="2" name="Tile Layer 2" width="30" height="20">
  <data encoding="csv">
   <chunk x="0" y="0" width="16" height="16">
0,0,0,0,0,0,0,0,0,0,0,0,0,0,0,0,
0,0,0,0,0,0,0,0,0,0,0,0,0,0,0,0,
0,0,0,0,0,0,0,0,0,0,0,0,0,0,0,0,
0,0,0,0,0,0,0,0,0,0,0,0,0,0,0,0,
0,0,0,0,0,0,0,0,0,0,0,0,0,0,0,0,
0,0,0,0,0,0,0,0,0,0,0,0,0,0,0,0,
0,0,0,0,0,0,0,0,0,0,0,0,0,0,0,0,
0,0,0,0,0,0,0,0,0,0,0,0,0,0,0,575,
0,0,0,0,0,0,0,0,0,0,0,0,0,0,0,575,
0,0,0,0,0,0,0,0,0,0,0,0,0,0,0,575,
0,0,0,0,0,0,0,0,0,0,0,0,0,0,0,0,
0,0,0,0,0,0,0,0,0,0,0,0,0,0,0,0,
0,0,0,0,0,0,0,0,0,0,0,0,0,0,0,0,
0,0,0,0,0,0,0,0,0,0,0,0,0,0,0,0,
0,0,0,0,0,0,0,0,0,0,0,0,0,0,0,0,
0,0,0,0,0,0,0,0,0,0,0,0,0,0,0,0
</chunk>
   <chunk x="16" y="0" width="16" height="16">
0,0,0,0,0,0,0,0,0,0,0,0,0,0,0,0,
0,0,0,0,0,0,0,0,0,0,0,0,0,0,0,0,
0,0,0,0,0,0,0,0,0,0,0,0,0,0,0,0,
0,0,0,0,0,0,0,0,0,0,0,0,0,0,0,0,
0,0,0,0,0,0,0,0,0,0,0,0,0,0,0,0,
0,0,0,0,0,0,0,0,0,0,0,0,0,0,0,0,
0,0,0,0,0,0,0,0,0,0,0,0,0,0,0,0,
575,0,0,0,0,0,0,0,0,0,0,0,0,0,0,0,
575,0,0,0,0,0,0,0,0,0,0,0,0,0,0,0,
575,0,0,0,0,0,0,0,0,0,0,0,0,0,0,0,
0,0,0,0,0,0,0,0,0,0,0,0,0,0,0,0,
0,0,0,0,0,0,0,0,0,0,0,0,0,0,0,0,
0,0,0,0,0,0,0,0,0,0,0,0,0,0,0,0,
0,0,0,0,0,0,0,0,0,0,0,0,0,0,0,0,
0,0,0,0,0,0,0,0,0,0,0,0,0,0,0,0,
0,0,0,0,0,0,0,0,0,0,0,0,0,0,0,0
</chunk>
  </data>
 </layer>
</map>
